svg/fluentui-system-icons/ic_fluent_weather_sunny_low_20_regular.svg

<svg width="20" height="20" viewBox="0 0 20 20" fill="none" xmlns="http://www.w3.org/2000/svg">
<path d="M5.554 10.0156C5.554 10.3538 5.59147 10.6832 5.66247 11H2.5C2.22386 11 2 11.2239 2 11.5C2 11.7761 2.22386 12 2.5 12H17.5C17.7761 12 18 11.7761 18 11.5C18 11.2239 17.7761 11 17.5 11H14.4084C14.4794 10.6832 14.5169 10.3538 14.5169 10.0156C14.5169 7.54052 12.5105 5.5341 10.0355 5.5341C7.56042 5.5341 5.554 7.54052 5.554 10.0156ZM13.3758 11H6.69514C6.60329 10.6878 6.554 10.3575 6.554 10.0156C6.554 8.0928 8.1127 6.5341 10.0355 6.5341C11.9582 6.5341 13.5169 8.0928 13.5169 10.0156C13.5169 10.3575 13.4676 10.6878 13.3758 11ZM10.0251 18.0121C10.0629 18.0121 10.0996 18.0079 10.135 18H9.91526C9.95062 18.0079 9.98738 18.0121 10.0251 18.0121ZM5.00696 4.32367L5.07621 4.38153L5.93452 5.23984C6.12979 5.4351 6.12979 5.75168 5.93452 5.94695C5.76096 6.12051 5.49153 6.1398 5.29667 6.0048L5.22742 5.94695L4.3691 5.08863C4.17384 4.89337 4.17384 4.57679 4.3691 4.38153C4.54267 4.20796 4.81209 4.18867 5.00696 4.32367ZM15.6808 4.38153C15.8543 4.55509 15.8736 4.82452 15.7386 5.01938L15.6808 5.08863L14.8224 5.94695C14.6272 6.14221 14.3106 6.14221 14.1153 5.94695C13.9418 5.77338 13.9225 5.50396 14.0575 5.30909L14.1153 5.23984L14.9736 4.38153C15.1689 4.18626 15.4855 4.18626 15.6808 4.38153ZM10.0284 2.02441C10.2739 2.02441 10.478 2.20129 10.5204 2.43454L10.5284 2.52441V3.73825C10.5284 4.0144 10.3046 4.23825 10.0284 4.23825C9.78295 4.23825 9.57881 4.06138 9.53647 3.82813L9.52841 3.73825V2.52441C9.52841 2.24827 9.75227 2.02441 10.0284 2.02441ZM8.5 16C8.22386 16 8 16.2239 8 16.5C8 16.7761 8.22386 17 8.5 17H11.5C11.7761 17 12 16.7761 12 16.5C12 16.2239 11.7761 16 11.5 16H8.5ZM5 14C5 13.7239 5.22386 13.5 5.5 13.5H14.5C14.7761 13.5 15 13.7239 15 14C15 14.2761 14.7761 14.5 14.5 14.5H5.5C5.22386 14.5 5 14.2761 5 14Z" fill="#212121"/>
</svg>

<svg xmlns="http://www.w3.org/2000/svg" width="20" height="20"><path d="M5.554 10.016c0 .338.037.667.108.984H2.5a.5.5 0 0 0 0 1h15a.5.5 0 0 0 0-1h-3.092a4.481 4.481 0 1 0-8.854-.984Zm7.822.984h-6.68a3.481 3.481 0 1 1 6.68 0Zm-3.35 7.012a.504.504 0 0 0 .109-.012h-.22a.503.503 0 0 0 .11.012ZM5.006 4.324l.07.058.858.858a.5.5 0 0 1-.638.765l-.07-.058-.858-.858a.5.5 0 0 1 .638-.765Zm10.674.058a.5.5 0 0 1 .058.637l-.058.07-.859.858a.5.5 0 0 1-.764-.638l.057-.07.859-.857a.5.5 0 0 1 .707 0Zm-5.653-2.358a.5.5 0 0 1 .492.41l.008.09v1.214a.5.5 0 0 1-.992.09l-.008-.09V2.524a.5.5 0 0 1 .5-.5ZM8.5 16a.5.5 0 0 0 0 1h3a.5.5 0 0 0 0-1h-3ZM5 14a.5.5 0 0 1 .5-.5h9a.5.5 0 0 1 0 1h-9A.5.5 0 0 1 5 14Z"/></svg>
